X: 365
T: Ooska Googas
O: Armenia
F: http://www.youtube.com/watch?v=EPntUhp7EzI
M: 6/8
L: 1/8
Q: 1/4=120
K: Fdor
%%MIDI program 4
Fcc cc2|Bc2 Bc2|Bc2 def |cBc BB2|
ABc BB2|ABc BB2|A2G AB2 |F6     |
F2E Fc2| B6    |A2G AB2 |F6     |
F2E Fc2| B6    |A2G AB2 |F6     |



